X:1
T:The Needy Ones of Earth
T:The Needy Ones of Earth
T:Karl K. Lorenz
T:Edith J. Sanford Tillotson, 1911
T:Public Domain Courtesy of the Cyber Hymnal™
T:Public Domain Courtesy of the Cyber Hymnal™
C:Karl K. Lorenz
Z:Public Domain
Z:Courtesy of the Cyber Hymnal™
%%score ( 1 2 ) 3
L:1/8
Q:1/4=97
M:4/4
K:Ab
V:1 treble 
V:2 treble 
V:3 bass 
V:1
 [CE]>[CE] [CA]>[DB] [Ec]2 [Fd]>[Ec] | [=Dc]2 [DB]2 [DF]3 [DF] | [DG]>[DG] [DF]>[DE] [Fd]2 [Gd]2 | %3
w: 1.~List- en to the voice of the|Sav- ior dear, He|speaks a word of match- less|
w: 2.~Tar- ry not and turn not in|scorn and pride, But|fol- low in His steps to-|
w: 3.~Jour- ney on your way with a|watch- ful eye, Jour-|ney with an out- stretch- ed|
 (z2 [Ac]2 [Acf]2 [Ace]2) | [ce]>[ce] [Ac]>[Ac] [Ge]>[Gd] [GB]2 | %5
w: |worth; “Seek the need- y, poor and|
w: |day; Seek them out, the weak, the|
w: |hand; Seek the need- y, dry their|
 [Ge]>[Ge] [GB]>[Fd] [Ec]>[DB] [CA]2 | [GB]>[GB] [Gc]>[GB] [=DF]>[DB] [Dc]>[DB] | %7
w: sad, Give them aid and make them|glad; Seek ye now the need- y ones|
w: poor, Give them com- fort, swift and|sure, Ye shall sure- ly hear the Sav-|
w: tears, Heal their sor- rows, calm their|fears, Je- sus sees and glad- ly un-|
 (z2 [GB]>[Gc] [Gd]2) z2 ||"^Refrain" [CE]2 [CE]2 [CE]>[CE] [Ec]>[DB] | %9
w: |* of earth.” * * *|
w: |* ior say: “What- so- ev-|
w: |* der- stands. * * *|
 (z2 [A,C]>D [CE]2) [B,G]>[CA] | [DB]2 [DB]2 [DB]>[DB] [Fd]>[Ec] | [DB]6 [Ac]>[Bd] | %12
w: |||
w: * * * er ye|* may do, With a heart|of love, a|
w: |||
 [ce]2 [ce]>[Bd] [Ac]2 [CA]>[EG] | [DF]2 [EF]>[EF] !fermata![Fd]2 [Ec]>[DB] | %14
w: ||
w: pur- pose true, In my Word|ye shall see, Ye have done|
w: ||
 [CA]2 [ce]>[Bd] c2 [DB]>[DB] | [CA]6 z2 |] %16
w: ||
w: it for Me, And My bless-|ing|
w: ||
V:2
 x8 | x8 | x8 | [Ac]6 x2 | x8 | x8 | x8 | G6 x2 || x8 | [CA]6 x2 | x8 | x8 | x8 | x8 | x4 (AE) x2 | %15
 x8 |] %16
V:3
 [A,,A,]2 [E,,F,]2 [A,,A,]2 [E,,E,]2 | [B,,A,]2 [B,,A,]2 [B,,A,]2 [B,,A,]2 | %2
 E,,2 [E,G,]2 E,,2 [E,B,]2 | (A,,2 [E,A,C]2 E,,2 [E,A,C]2) | A,,2 [E,A,C]2 B,,2 [E,B,D]2 | %5
 E,,2 [E,G,D]2 A,,2 [E,A,]2 | B,,2 [G,B,E]2 B,,2 [F,A,B,]2 | (E,,2 [E,D]>[E,C] [E,B,]2) z2 || %8
 [A,,A,]2 [E,,E,]2 [A,,A,]2 [E,,E,]2 | ([A,,A,]2 [E,,E,]2 [A,,A,]2) [E,,E,]2 | %10
 [G,,G,]2 [E,,E,]2 [G,,G,]2 [E,,E,]2 | ([G,,G,]2 [E,,E,]>[F,,F,] [G,,G,]2 [E,,E,]2) | %12
 A,,2 [E,A,C]2 A,,2 [E,A,]>[C,A,] | [D,A,]2 [F,=A,]>[F,A,] !fermata![B,,F,B,]2 [C,,C,]>[D,,D,] | %14
 [E,,E,]2 [E,A,C]2 E,,2 [E,G,]2 | ([A,,A,]2 E,2 A,,2) z2 |] %16

